svg/tailscale.svg

<svg xmlns="http://www.w3.org/2000/svg" xml:space="preserve" viewBox="0 0 512 512"><path d="M65.6 318.1c35.3 0 63.9-28.6 63.9-63.9s-28.6-63.9-63.9-63.9S1.8 219 1.8 254.2s28.6 63.9 63.8 63.9m191.6 0c35.3 0 63.9-28.6 63.9-63.9s-28.6-63.9-63.9-63.9-63.9 28.6-63.9 63.9 28.6 63.9 63.9 63.9m0 193.9c35.3 0 63.9-28.6 63.9-63.9s-28.6-63.9-63.9-63.9-63.9 28.6-63.9 63.9 28.6 63.9 63.9 63.9m189.2-193.9c35.3 0 63.9-28.6 63.9-63.9s-28.6-63.9-63.9-63.9-63.9 28.6-63.9 63.9 28.6 63.9 63.9 63.9"/><path d="M65.6 127.7c35.3 0 63.9-28.6 63.9-63.9S100.9 0 65.6 0 1.8 28.6 1.8 63.9s28.6 63.8 63.8 63.8m0 384.3c35.3 0 63.9-28.6 63.9-63.9s-28.6-63.9-63.9-63.9-63.8 28.7-63.8 63.9S30.4 512 65.6 512m191.6-384.3c35.3 0 63.9-28.6 63.9-63.9S292.5 0 257.2 0s-63.9 28.6-63.9 63.9 28.6 63.8 63.9 63.8m189.2 0c35.3 0 63.9-28.6 63.9-63.9S481.6 0 446.4 0c-35.3 0-63.9 28.6-63.9 63.9s28.6 63.8 63.9 63.8m0 384.3c35.3 0 63.9-28.6 63.9-63.9s-28.6-63.9-63.9-63.9-63.9 28.6-63.9 63.9 28.6 63.9 63.9 63.9" style="opacity:.2"/></svg>

<?xml version="1.0" encoding="utf-8"?>
<!-- Generator: Adobe Illustrator 28.2.0, SVG Export Plug-In . SVG Version: 6.00 Build 0)  -->
<svg version="1.1" id="Layer_1" xmlns="http://www.w3.org/2000/svg" xmlns:xlink="http://www.w3.org/1999/xlink" x="0px" y="0px"
	 viewBox="0 0 512 512" style="enable-background:new 0 0 512 512;" xml:space="preserve">
<style type="text/css">
	.st0{opacity:0.2;enable-background:new    ;}
</style>
<path d="M65.6,318.1c35.3,0,63.9-28.6,63.9-63.9s-28.6-63.9-63.9-63.9S1.8,219,1.8,254.2S30.4,318.1,65.6,318.1z M257.2,318.1
	c35.3,0,63.9-28.6,63.9-63.9s-28.6-63.9-63.9-63.9s-63.9,28.6-63.9,63.9S221.9,318.1,257.2,318.1z M257.2,512
	c35.3,0,63.9-28.6,63.9-63.9s-28.6-63.9-63.9-63.9s-63.9,28.6-63.9,63.9S221.9,512,257.2,512z M446.4,318.1
	c35.3,0,63.9-28.6,63.9-63.9s-28.6-63.9-63.9-63.9s-63.9,28.6-63.9,63.9S411.1,318.1,446.4,318.1z"/>
<path class="st0" d="M65.6,127.7c35.3,0,63.9-28.6,63.9-63.9S100.9,0,65.6,0S1.8,28.6,1.8,63.9S30.4,127.7,65.6,127.7z M65.6,512
	c35.3,0,63.9-28.6,63.9-63.9s-28.6-63.9-63.9-63.9S1.8,412.9,1.8,448.1S30.4,512,65.6,512z M257.2,127.7c35.3,0,63.9-28.6,63.9-63.9
	S292.5,0,257.2,0s-63.9,28.6-63.9,63.9S221.9,127.7,257.2,127.7z M446.4,127.7c35.3,0,63.9-28.6,63.9-63.9S481.6,0,446.4,0
	c-35.3,0-63.9,28.6-63.9,63.9S411.1,127.7,446.4,127.7z M446.4,512c35.3,0,63.9-28.6,63.9-63.9s-28.6-63.9-63.9-63.9
	s-63.9,28.6-63.9,63.9S411.1,512,446.4,512z"/>
</svg>
